X: 13471
T: Flow, In The Year Of Wu Wei
R: three-two
M: 3/2
K: Dmajor
|:FG z F EBGA GEEF|GEEE EFFG z G G/F/E|
DEG A2 BAG AGEB|GAAc z EGA AGFE|
F G2 F EBAB GEEE|GEEE EFFG z G G/F/E|
[1 DEGA ABAG AG E2|Bcc d2 Bed cAGE:|
[2 DEGA ABAG AGEB|cAE d2 Bde e2 z2||
|:[M:2/2] E3 B cA A2|dBBe z gfA|BddB d2 BG|effd z BcA|
E3 B cA A2|dBBe z ffe|fgdf f/e/d cA|EFGd decA:|
|:z2 z2 eff(e|e2) _e2 B4|eff(e e2) _e2|A4 eff(e|e2) _e2 B2 BB|
eff ^g3 e2|F2 z2 eff(e|e)e _e2 B4|eff e2 e _e2|A4 eff(e|
[1 e)e _e2 B2 BB|eff ^g3 e2:|2 e2 _e2 B2 Bc|efaf ecBA||
|:[M:3/2] effe ffec abf z|effe ffec FAF z|
ff z f z f_eB e=eef|_e=ee e2 e_eB A A2 z|
effe ffec abf z|effe ffec FAF z|
ff z f z f_eB e=eef|_e=ee e2 e_eB A A2 z|
EFF A2 FAB BcFA|ff_eB GBef g3 =e|
a3 a2 afa fggg|efff z f_eB e=eeB|
EFF A2 FAB BcFA|ff_eB GBef g3 =e|
a3 a2 afa fggg|efff z f_eB e=eee:|[K:Cmaj]
|:DAdf dAGc dfgc|d2 d4 z a fec z|
DAdf dAGc dfgG|B2 BG g/f/d fd cAF z|
DAdf dAGc dfgc|d2 d4 z a fec z|
DAdf dAGc dfgG|B2 BG gafd cAF z:|

